X:1
T:Aria: "Il Capro e la Capretta"
T:Aria: "Il Capro e la Capretta"
T:from the opera "Le Nozze di Figaro"
T:Mozart
C:Mozart
%%score 1 { ( 2 5 ) | ( 3 4 ) }
L:1/8
Q:1/4=80
M:3/4
K:G
V:1 treble nm="Voice"
V:2 treble nm="Piano"
V:5 treble 
V:3 bass 
V:4 bass 
V:1
 z2 | z6 | z6 | z6 | z6 | z6 | z6 | z6 | z6 | z6 | z6 | z6 | z4 z G | B3 G cA | d>g d2 z d | %15
w: ||||||||||||Il|capro e la ca-|pret- * ta son|
 d3 c/B/ cd | c2 B2 z B | (c>B) AB c^c | (d>c) B2 z d | (e2 (e/)f/)(g/f/) (e/d/)(c/B/) | %20
w: sempre in * a- mi-|sta _ l'a-|gnel- * lo all'- a- gnel-|let- * ta la|guer- * * ra- * mai- * non- *|
 (B2 A2) z d | ^c3 d ef | e2 A2 z d | ^c3 d ef | e2 A2 z2 | (A>d) dd dd | (d>f) f2 z f | %27
w: fa _ Le|piú fe- ro- ci|bel- ve per|sel- vee per cam-|pa- gne|La- * scian le lor com-|pa- gne _ in|
 (e/f/)(g/e/) d2 e2 | (e2 f2) z2 | (A>d) dd dd | (d>f) f2 z f | (e/f/)(g/e/) d2 ^c2 | %32
w: pa- * ce- e li- ber-|tà _|la- * scian le lor com-|pa- * gne in|pa- * ce- e- li- ber-|
 d/{/e}d/4^c/4d/e/{/g} f/f/4e/4f/g/ a/f/e/d/ | ^c/{/d}c/4B/4c/d/ e/{/f}e/4d/4e/f/ a/g/f/e/ | %34
w: ta _ _ _ _ _ _ _ _ _ _ _ _ _|_ _ _ _ _ _ _ _ _ _ _ _ _ _|
 f/a/f/d/ ^c/g/e/c/ d/=c/B/^A/ | (B/e/)(g/e/) d2 ^c2 | (d3 ^d e)[Q:1/4=80]c | B3 G cA | %38
w: |* * in _ li- ber|ta. * * il|ca- proe la ca-|
 d>g d2 z d | d3 (c/B/) cd | (c2 B2) z B | (c>B) AB c^c | (d>c) B2 z d | %43
w: pret- * ta son|sem- prein * a- mi-|sta. * l'a-|gnel * lo all'- a gnel-|let- * ta la|
 (e2 (e/)f/)(g/f/) (e/d/)(c/B/) | (B2 A2) z d | f3 g cB | d>B A2 z d | f3 g cB | d>B A2 z2 | %49
w: guer- * * ra- * mai- * non *|fa. * Le|piu fe- ro- ce|bel- * ve per|sel- vee per cam-|pa- * gne|
 _e2 cA _Bc | d2 _B2 z d | c2 c/d/_e/d/ c/_B/A/G/ | Fd !fermata!g3 ^c |[M:4/4] d4 z2 !fermata!z d | %54
w: la- scian le lor com-|pa- gne in|pa- * * ce- e li- * ber- *|ta, in li- ber-|ta. Sol|
 B4 dcBc | dB e4 d2 | c2 B2 A2 B2 | c>c c2 z2 z c | A3 A B3 B | cA d4 c2 | B2 A2 G2 A2 | B2 G2 g4 | %62
w: noi po- * ve- re|fem- mi- ne, che|tan- toa- miam quest'|uo- mi- ni trat-|ta- te siam dai|per- fi- di o-|gnor con cru- del-|ta, o- gnor|
 g2{/f} e2{/d} c3 B | A2 z2 z4 | z4 z2 f2 | g2 dB c3 d | B>B B2 z2 f2 | g2 dB c3 d | B>B B2 z2 d2 | %69
w: _ con cru- del-|ta;|sol|noi po- * ve- re|fem- mi- ne, che|tan- to a miam quest'|uo- mi- ni che|
 d6 d2 | d8 |[Q:1/4=80] d/e/d/B/ c/d/c/A/ G/B/A/c/ B/d/c/e/ | d/e/d/B/ c/d/c/A/ G/B/A/c/ B/d/c/e/ | %73
w: tan- toa-|miam|_ _ _ _ _ _ _ _ _ _ _ _ _ _ _ _||
 dTBcd ede[Q:1/4=80]f | g>d d2 z2 z G | c3 B c3 d | e>e (d3 e)(fg) | B3 d A2 d2 | (c2 B2) z2 z G | %79
w: * * * * * * * quest'|uo- mi- ni. trat-|ta- ta siam dai|per- fi- di _ o- *|gnor con cru- del-|ta, _ trat-|
 c3 B c3 d | e>e (d3 e)(fg) | B3 d{/d} c2 (BA) |[Q:1/4=80] B/d/c/B/ c/d/e/f/ g/a/b/a/ g/f/e/^d/ | %83
w: ta- te siam dai|per- fi- di _ o- *|gnor con cru- del- *|ta, _ _ _ _ _ _ _ _ _ _ _ _ _ _ _|
 e2 z g B2 A2 |[Q:1/4=80] B/d/c/B/ c/d/e/f/ g/a/b/a/ g/f/e/^d/ |[Q:1/4=80] e3 (f/g/) B2 A2 | %86
w: _ con cru- del-|ta, _ _ _ _ _ _ _ _ _ _ _ _ _ _ _|_ con * cru- del|
 G2 e2 d2 f2 | g2 e2 d2 F2 | G2 z2 z4 | z8 | z8 | z8 | z8 | z8 |] %94
w: ta, con cru- del-|ta, con cru- del-|ta.||||||
V:2
 z G | B3 G [Ac][FA] | [Bd]>g [Bd]2 z [Bd] | [Bd]3 [Ac]/[GB]/ [Ac][Fd] | ([Ac]2 [GB]2) z [GB] | %5
 [Ac]>[GB] [FA][GB] [Ac][^A^c] | [Bd]>[Ac] [GB][Ac] [Bd][B^d] | [ce]/g/.[ce]/.[Ac]/ [GB]2 [FA]2 | %8
 (Tb3/2a/4b/4) (c'/a/g/f/ g/^g/a/^a/) | (Tb3/2a/4b/4) (c'/a/g/f/ g/^g/a/^a/) | %10
 (b/d'/).f/.a/ (g/b/).d/.=f/ (e/g/).A/.c/ | B/d/G/B/ D2 A3/2G/4A/4 | GD G, z z2 | [DGB]4 [Ac][FA] | %14
 [Bd]>g [Bd]2 z [Bd] | [Bd]3 [Ac]/[GB]/ [Ac][Fd] | ([Ac]2 [GB]2) z [GB] | %17
 [Ac]>[GB] ([FA][GB] [Ac][^A^c]) | [Bd]>[Ac] [GB][Ac] [Bd][Bd] | %19
 ([ce]2 ([ce]/)[df]/)([eg]/[df]/) ([ce]/[Bd]/)([Ac]/[GB]/) | [GB]2 [FA]2 z d | (^c3 d ef) | %22
 (e/A/).a/.a/ .a/(a/^c'/a/) (d'/a/).f/.d/ | (^c3 d ef) | e/a/e/^c/ A/A/E/^C/ A,/ z/ z | %25
 ([fa]>d') .[df].[Adf] .[Adf].[Adf] | ([Adf]>a) .[Fd].[FAd] .[FAd].[FAd] | %27
 ([GB]/[FA]/[GB]/[EG]/) ([DF]2 [^CE]2) | ([G^c]2 [Fd]2) z2 | ([fa]>d') .[df].[Adf] .[Adf].[Adf] | %30
 ([Adf]>a) .[Fd].[FAd] .[FAd].[FAd] | ([GB]/[FA]/[GB]/[EG]/) ([DF]2 [^CE]2) | D2 z2 [DAd]2 | %33
 [GA^c]2 z2 [EGA]2 | [FA]2 ^c2 d/=c/B/^A/ | B/G/B/G/ FF EE | D2 z4 | [GB]4 [Ac][FA] | %38
 [Bd]>g [Bd]2 z [Bd] | [Bd]3 [Ac]/[GB]/ [Ac][Fd] | [Ac]2 [GB]2 z [GB] | %41
 [Ac]>[GB] [FA][GB] [Ac][^A^c] | [Bd]>[Ac] [GB][Ac] [Bd][Bd] | %43
 ([ce]2 ([ce]/)[df]/)([eg]/[df]/) ([ce]/[Bd]/)([Ac]/[GB]/) | ([Bd]>[GB]) [FA]2 z d | (f3 g c'b) | %46
 [bd']>[gb] [fa]/[dd']/[^c^c']/[dd']/ [cc']/[dd']/[cc']/[dd']/ | (f3 g cB) | %48
 [Bd]>[GB] [FA]/d/^c/d/ c/d/c/d/ | _e2 cA _Bc | d2 _B/[Gg]/[B_b]/[Aa]/ [Gg]/[=F=f]/[_E_e]/[Dd]/ | %51
 ([Cc]4 [Cc])[^C^c] | [Dd] z [^CG]4 |[M:4/4] [DF]2 z2 z2 !fermata!z z | (B4 dcBc) | (dB e4 d2 | %56
 c2 B2 A2 B2 | c2) (c'/b/a/g/ f2) c2 | A4 cBAB | cA d4 c2 | B2 A2 G2 A2 | %61
 [GB][GB][Bd][Bd] [dg][dg][^dg][dg] | [eg][eg][ce][ce] [Ac] [Ac]2 [GB] | [FA]DDD DCB,A, | %64
 G,2 z (TB/A/4B/4 c2) z (Tf/e/4f/4) | g2 z (Tb/a/4b/4 c').b.a.d' | %66
 b2 z (TB/A/4B/4 c2) z (Tf/e/4f/4 | g2) z2 z4 | z b z [dd'] z [cc'] z [Aa] | %69
 z [Bb] z [dd'] z [cc'] z [Aa] | [Bb]g z [Dd] z [Cc] z [A,A] | %71
 [B,B] z [DA] z .[B,G].[DA].[GB].[Ac] | .[Bd].[GB].[Ac].[DA] .[B,G].[DA].[GB].[Ac] | %73
 [Bd][GB][Ac][Bd] [ce][Bd][ce][Af] | [Bg]2 [db]2 [Bdg]2 z G | (c3 B) (c3 d) | .[Ge]2 .[Ad]2 z4 | %77
 z .[GB]([GB][Bd]) ([Bd][Ac])[GB][FA] | [FAc]2 [GB]2 z GAB | (c3 B) (c3 d) | .[Ge]2 .[Gd]2 z4 | %81
 z .[GB]([GB][Bd]) ([Bd][Ac])[GB][FA] | [GB]2 z2 ((d3 ^d)) | %83
 [Ge][Ge][EAc][EAc] [DGB][DGB][DFA][DFA] | [DGB]2 z2 ((d3 ^d)) | %85
 [Ge][Ge][EAc][EAc] [DGB][DGB][DFA][DFA] | [B,G] z [ce]/G/[ce]/G/ [Bd]/G/[Bd]/G/ [df]/A/[df]/A/ | %87
 [_ef]/B/[dg]/B/ [gc']/=e/[gc']/e/ [gb]/d/[gb]/d/ [fa]/d/[fa]/d/ | %88
 [Bdgb]3 [Bb] [dd'][cc'][Bb][cc'] | [dd']b [ee']4 [dd']2 | [cc']a [dd']4 [cc']2 | %91
 (Tb3/2a/4b/4) .c'.a (Tg3/2f/4g/4) .a.f | g2 [dgb]2 [Bdg]2 [Bdg]2 | [Bdg]4 z4 |] %94
V:3
 z B, | D3 B, C2 | [G,B,]2 z D B,G, | D6 | z G, B,D B,G, | [D,D]4 z2 | [G,,G,]4 z2 | %7
 [C,C]2 [D,D]2 [D,D]2 |[K:treble] .G.D .A.D .B.F | .G.D .A.D .B.F | %10
[K:bass] [G,D][G,C] [B,D][B,G] C[^F,D] | [G,D][B,D] [D,B,][D,B,] [D,F,][D,F,] | %12
 [G,,G,]2 z G, D,B,, | G,,2 G,2 [G,C]2 | [G,B,]2 z D B,G, | D6 | z G, B,D B,G, | [D,D]4 z2 | %18
 [G,,G,]4 z2 | C,C, C,C, C,^C, | D,D, F,A, F,D, | (A,2 z D ^CD) | ^C [CE]2 ([EG] .[DF]).[DF] | %23
 E3 D ^CD | [A,^C][A,,^C,E,A,] [A,,C,E,A,][A,,C,E,A,] [A,,C,E,A,] z | [D,D]2 z D A,F, | %26
 D,2 z A,, F,,D,, | z2 A,4 | D,2 z D A,F, | D,2 z D A,F, | D,2 z D A,F, | G,2 A,2 [A,,G,]2 | %32
 [D,F,]2 z2 F,2 | E,2 z2 ^C,2 | z2 A,3 C | B,B, A,A, G,G, | [D,F,]2 z4 | D4 C2 | [G,B,]2 z D B,G, | %39
 D6 | z G, B,D B,G, | [D,D]4 z2 | [G,,G,]4 z2 | C,C, C,C, C,^C, | D,D, D,/D/^C/D/ C/D/C/D/ | %45
 (A,3 G, F,G,) | DD DD DD | (A,3 G, F,G,) | [D,D]2 D,/D/^C/D/ C/D/C/D/ | %49
 [C_E]2 [A,C][F,A,] [G,_B,][A,C] | [_B,D]2 [G,B,]2 z2 | G,6 | [D,A,] z [_E,G,]4 | %53
[M:4/4] [D,A,]2 z2 z2 !fermata!z z | G,D,G,D, A,D,A,D, | B,D,CD, CD,B,D, | A,D,G,D, F,D,G,D, | %57
 A,D,G,D, F,D,G,D, | F,D,F,D, G,D,G,D, | A,D,B,D, B,D,A,D, | G,D,CD, B,D,F,D, | %61
 G,,G,G,,G, B,,B,B,,B, | C,CC,C C,C^C,^C | [D,D]D,D,D, D,C,B,,A,, | z2 ([DF]2 E2 [A,CD]2) | %65
 D2 (G,2 E,2 F,2) | G,2 ([D=F]2 E2 ([A,CD]2) | [B,D]2) (G,2 E,2 G,2) | G, z B, z A, z F, z | %69
 G, z B, z A, z F, z | G, z B, z A, z F, z | .G,2 z2 z4 | .G,2 z2 z4 | G,,G,G,,G, G,,G,G,,G, | %74
 G,,2 [G,,G,]2 [G,,G,]2 z2 | (E3 ^D) (E3 B,) | .C2 .B,2 z4 | D,2 z2 D,2 z2 | z2 G,2 G,,2 z2 | %79
 (E3 ^D) (E3 B,) | .C2 .B,2 z4 | D,2 z2 D,2 z2 | G,2 z2 ((B,4 | C2)) C,2 D,2 D,2 | F,2 z2 (B,4 | %85
 C2) C,2 D,2 D,2 | G,G,C,C, D,D,C,C, | B,,B,,C,C, D,D,D,D, | G,D,G,D, A,D,A,D, | %89
 B,A,^G,F, E,D,C,B,, | A,,G,F,E, D,C,B,,A,, | G,,2 [C,E,]2 [D,B,]2 .C.A, | %92
 [G,B,]2 [G,,G,]2 [G,,G,]2 [G,,G,]2 | [G,,G,]4 z4 |] %94
V:4
 x2 | G,2 G,2 G,2 | x6 | D,2 D,2 D,2 | x6 | x6 | x6 | x6 |[K:treble] x6 | x6 |[K:bass] x6 | x6 | %12
 x6 | x6 | x6 | D,2 D,2 D,2 | x6 | x6 | x6 | x6 | x6 | A,,2 A,2 A,2 | A,A, A,A, A,A, | %23
 A,2 A,2 A,2 | x6 | x6 | x6 | G,2 A,2 A,,2 | x6 | x6 | x6 | x6 | x6 | x6 | D,2 E,2 F,2 | %35
 G,2 A,2 A,,2 | x6 | G,2 G,2 G,2 | x6 | D,2 D,2 D,2 | x6 | x6 | x6 | x6 | x6 | D,2 D,2 D,2 | %46
 D,D, D,D, D,D, | D,2 D,2 D,2 | x6 | x6 | x6 | _E,2 E,2 E,2 | x6 |[M:4/4] x8 | x8 | x8 | x8 | x8 | %58
 x8 | x8 | x8 | x8 | x8 | x8 | G,,2 (G,6 | [G,B,]2) (G,,6 | G,,2) G,6 | G,2 (G,,6 | %68
 G,,) z B, x A, x F, x | x2 B, x A, x F, x | x2 B, x A, x F, x | x8 | x8 | x8 | x8 | x8 | x8 | x8 | %78
 x8 | x8 | x8 | x8 | x8 | x8 | x8 | x8 | x8 | x8 | x8 | x8 | x8 | x6 D,2 | x8 | x8 |] %94
V:5
 x2 | x6 | x6 | x6 | x6 | x6 | x6 | x6 | x6 | x6 | x6 | x6 | x6 | x6 | x6 | x6 | x6 | x6 | x6 | %19
 x6 | x6 | G/E/B/B/ B/^c/A/c/ B/c/A/c/ | x6 | G/E/B/B/ B/^c/A/c/ B/c/A/c/ | x6 | x6 | x6 | x6 | %28
 x6 | x6 | x6 | x6 | x6 | x6 | D2 G2 AD | D/E/G/E/ DD ^CC | x6 | x6 | x6 | x6 | x6 | x6 | x6 | x6 | %44
 x6 | c/A/c/c/ c/d/B/d/ a/d/g/d/ | x6 | c/A/c/c/ c/d/B/G/ A/D/G/D/ | x6 | x6 | x6 | x6 | x6 | %53
[M:4/4] x8 | x8 | x8 | x8 | x8 | x8 | x8 | x8 | x8 | x8 | x8 | x8 | x8 | x8 | x8 | x8 | x8 | x8 | %71
 x8 | x8 | x8 | x8 | G4 G4 | x8 | x8 | D4 x4 | G4 G4 | x8 | x8 | x4 G4 | x8 | x4 G4 | x8 | x8 | %87
 x8 | x8 | x8 | x8 | x8 | x8 | x8 |] %94

